X:31
T:Cruihagmore Strathspey* +
B:NFID.194a ("untitled strathspey")
031cruih
S:DOD
N:This tune is almost identical to a reel called "The
Watchmaker"
L:1/8
M:C
R:hornpipe
Q:280
K:Gm % dor
A|B<GGB A<FFA|B<GGA BcdB|B<GGB A<FFA|(3BAG AF D<GG:|
A|B2dB fBdB|F2AF cFAF|B2dB fBdc|dggf dgga|
f<ddf =e<c[ec]e|d<BBd cAFA|1 GABc dd/=e/dc|BGAF DGG:|
[2 GABc d=ega|f<ddA G2[B2G2]:|
= = =
P:simplified version in Am
B|cAAc BGGB|cAAB cdec|cAAc BGGB|(3cBA BG EAA:|
B|c2ec gcec|G2BG dGBG|c2ec gced|eaag eaab|
g<eeg ^fddf|ecce dBGB|1 ABcd e2ed|cABG EAA:|
[2 ABcd e^fab|geeB A4|]

%%%

